!!!SOCIAL_FUNCTION:	songs concerning the sacred stones
!!!PDT:	1918

Specific Region: Dakotas, Minnesota, Montana, Nebraska
!!!REG: Dakotas and Montana
!!!LING_GROUP: Siouan
!!!LANG: Tone
!!!OTL@ENG: The Sacred Stones Come to See You
!!!ONM: No. 60
**kern
*Imale
*clefF4
*k[b-e-a-]
*M2/4
*MM60
8.c
16c
4c
=1||
*M3/4
(2c
8.B-)
16c
=2
4B-
4B-
8.A-
16B-
=3||
*M2/4
[2A-
=4
8A-]
8F
4F
=5
8.A-
16B-
4A-
=6||
*M3/4
[2A-
8A-]
16.F
32A-
=7
4A-
[4A-
8A-]
8F
=8||
*M2/4
8.E-
16F
[4E-
=9
8E-]
8C
4C
=10
8.E-
16G
4G
=11||
*M3/4
[4F
8.F]
16E-
8.E-
16F
=12
4E-
4E-
8E-
8C
=13||
*M2/4
4C
8.C
16C
=14
[2C
=15
4.C]
16C
16C
=16
8.c
16e-
4c
=17
4c
8.B-
16c
=18
4B-
8A-
16B-
16B-
=19
[2A-
=20
8A-]
8F
8.F
16B-
=21
8.A-
16B-
4A-
=22||
*M3/4
[2A-
8A-]
16.F
32A-
=23
4A-
4.A-
8F
=24||
*M2/4
4E-
[4E-
=25
8E-]
8C
4C
=26
8.E-
16F
4F
=27||
*M3/4
[4F
8.F]
16E-
8.E-
16F
=28
4E-
[4E-
8E-]
8C
=29||
*M2/4
4C
8.C
16C
=30
[2C
=31
2C]
==
*-
!!!CNT: Native American -- Sioux
!!!MRD: 1911/07//-1914///
!!!OCL: Frances Densmore
!!!YOR1: Teton Sioux Music, Bulletin 61,
!!!YOR2: Bureau of American Ethnology, Smithsonian Institution
!!!PPR: Government Printing Office
!!!PPP: Washington, D.C.
!!!PDT: 1918///
!!!ENC: Craig Stuart Sapp
!!!END: 2002/03/25/
!!!EEV: 2002/03/31/
!!!AGN: Song of Personal Dreams/Song Concerning the Sacred Stones
!!!MPN@@SIO: Mato'-kuwa
!!!MPN@ENG: Chased-by-Bears
!!!TXO: Teton Sioux
!!!MLC: Standing Rock Reservation, South Dakota, United States of America
!!!ARL: 45.9/-100.7#
!!!catalog: Catalogue No. 675
!!!PPG: 212
!!!EFL: 60/245
!!!VTS: 3957773349
